X:66
T:Dispute at the Crossroad (reel)
T:Doctor Gilbert's 
B:CRE2.228 (Aighneas ar an gCrosbhothar)
F:file ID: cre.2/066disp_c 
M:C
R:reel
Q:180
K:Em
gf|eBB/A/B BAB^c|dBAF AFDf|eBBA Begb|afdf efgf|
eBB/A/B BAB^c|dBAF AFDA|Bee/d/e Bdgb|afdf ef:|
gf|eBB/A/B gBB/A/B|defg afdf|g2bg (3fef af|gefd edBb|
afdf eBB/A/B|dBAF AFDA|Bee/d/e Bdgb|afdf ef:|

%%%

